actions/64/edit-undo.svg

<?xml version="1.0" encoding="UTF-8" standalone="no"?>
<svg
   xmlns:dc="http://purl.org/dc/elements/1.1/"
   xmlns:cc="http://creativecommons.org/ns#"
   xmlns:rdf="http://www.w3.org/1999/02/22-rdf-syntax-ns#"
   xmlns:svg="http://www.w3.org/2000/svg"
   xmlns="http://www.w3.org/2000/svg"
   xmlns:xlink="http://www.w3.org/1999/xlink"
   id="svg3890"
   height="64"
   width="64"
   version="1.1">
  <defs
     id="defs3892">
    <linearGradient
       gradientTransform="matrix(0,-1.6273539,-1.7508644,0,65.437071,75.161427)"
       gradientUnits="userSpaceOnUse"
       xlink:href="#linearGradient4087-8-0"
       id="linearGradient3269"
       y2="15.991243"
       x2="20.576487"
       y1="15.991243"
       x1="38.940514" />
    <linearGradient
       id="linearGradient4087-8-0">
      <stop
         offset="0"
         style="stop-color:#ffffff;stop-opacity:1"
         id="stop4089-4-4" />
      <stop
         offset="0.51153916"
         style="stop-color:#ffffff;stop-opacity:0.23529412"
         id="stop4091-8-2" />
      <stop
         offset="0.58522105"
         style="stop-color:#ffffff;stop-opacity:0.15686275"
         id="stop4093-1-9" />
      <stop
         offset="1"
         style="stop-color:#ffffff;stop-opacity:0.39215687"
         id="stop4095-03-6" />
    </linearGradient>
    <linearGradient
       gradientTransform="matrix(-1.4940056,0,0,1.3886149,68.100586,0.0358146)"
       gradientUnits="userSpaceOnUse"
       xlink:href="#linearGradient3846"
       id="linearGradient3234-4"
       y2="38.361729"
       x2="23.731871"
       y1="4.4175272"
       x1="23.731871" />
    <linearGradient
       id="linearGradient3846">
      <stop
         offset="0"
         style="stop-color:#fff3cb;stop-opacity:1"
         id="stop3848" />
      <stop
         offset="0.26238"
         style="stop-color:#fdde76;stop-opacity:1"
         id="stop3850" />
      <stop
         offset="0.66093999"
         style="stop-color:#f9c440;stop-opacity:1"
         id="stop3852" />
      <stop
         offset="1"
         style="stop-color:#e48b20;stop-opacity:1"
         id="stop3854" />
    </linearGradient>
    <radialGradient
       gradientTransform="matrix(1,0,0,0.536723,0,16.87306)"
       gradientUnits="userSpaceOnUse"
       xlink:href="#linearGradient8662-7"
       id="radialGradient4195"
       fy="36.421127"
       fx="24.837126"
       r="15.644737"
       cy="36.421127"
       cx="24.837126" />
    <linearGradient
       id="linearGradient8662-7">
      <stop
         offset="0"
         style="stop-color:#000000;stop-opacity:1"
         id="stop8664-0" />
      <stop
         offset="1"
         style="stop-color:#000000;stop-opacity:0"
         id="stop8666-1" />
    </linearGradient>
  </defs>
  <metadata
     id="metadata3895">
    <rdf:RDF>
      <cc:Work
         rdf:about="">
        <dc:format>image/svg+xml</dc:format>
        <dc:type
           rdf:resource="http://purl.org/dc/dcmitype/StillImage" />
        <dc:title></dc:title>
      </cc:Work>
    </rdf:RDF>
  </metadata>
  <g
     transform="matrix(2.6666667,0,0,2.6666667,5.9999997,-21.333333)"
     id="layer1-6">
    <g
       transform="translate(-2,0)"
       id="g4190">
      <path
         d="m 40.481863,36.421127 a 15.644737,8.3968956 0 1 1 -31.2894745,0 15.644737,8.3968956 0 1 1 31.2894745,0 z"
         transform="matrix(0.52995454,0,0,-0.65783905,0.487385,48.935435)"
         id="path3501-0"
         style="display:inline;overflow:visible;visibility:visible;opacity:0.14117647;fill:url(#radialGradient4195);fill-opacity:1;fill-rule:evenodd;stroke:none;stroke-width:1;marker:none" />
    </g>
  </g>
  <path
     d="M 44.695463,53.518037 C 63.665459,40.730214 53.644575,17.1963 32.499999,17.38896 l 0,-10.9068916 -26.0180363,18.7929666 26.0180363,18.699472 0,-10.906891 c 13.637403,-0.528147 21.262444,11.527517 11.51308,20.450421 z"
     id="path3503-2-0"
     style="display:block;overflow:visible;visibility:visible;fill:url(#linearGradient3234-4);fill-opacity:1;fill-rule:nonzero;stroke:none;stroke-width:0.96392483;stroke-linecap:butt;stroke-linejoin:round;stroke-miterlimit:7;stroke-dasharray:none;stroke-dashoffset:0;stroke-opacity:1;marker:none;color:#000000;clip-rule:nonzero;opacity:1;isolation:auto;mix-blend-mode:normal;color-interpolation:sRGB;color-interpolation-filters:linearRGB;solid-color:#000000;solid-opacity:1;filter-blend-mode:normal;filter-gaussianBlur-deviation:0;color-rendering:auto;image-rendering:auto;shape-rendering:auto;text-rendering:auto;enable-background:accumulate" />
  <path
     d="M 46.747181,51.500444 C 61.205178,38.368479 52.839675,18.32819 31.499999,18.32819 l 0,-9.9447245 -23.3284733,16.8915695 23.3284733,16.716837 0,-10.027078 c 20.258685,0.201254 19.805943,16.121693 15.247182,19.53565 z"
     id="path3505-1-4"
     style="display:block;overflow:visible;visibility:visible;opacity:0.8;fill:none;stroke:url(#linearGradient3269);stroke-width:0.96392483;stroke-linecap:butt;stroke-linejoin:miter;stroke-miterlimit:7;stroke-dasharray:none;stroke-dashoffset:0;stroke-opacity:1;marker:none" />
  <path
     d="M 44.695463,53.518037 C 63.665459,40.730214 53.644575,17.1963 32.499999,17.38896 l 0,-10.9068916 -26.0180363,18.7929666 26.0180363,18.699472 0,-10.906891 c 13.637403,-0.528147 21.262444,11.527517 11.51308,20.450421 z"
     id="path3503-2-0-1"
     style="color:#000000;clip-rule:nonzero;display:inline;overflow:visible;visibility:visible;opacity:0.5;isolation:auto;mix-blend-mode:normal;color-interpolation:sRGB;color-interpolation-filters:linearRGB;solid-color:#000000;solid-opacity:1;fill:none;fill-opacity:1;fill-rule:evenodd;stroke:#956500;stroke-width:1;stroke-linecap:butt;stroke-linejoin:round;stroke-miterlimit:4;stroke-dasharray:none;stroke-dashoffset:0;stroke-opacity:1;marker:none;color-rendering:auto;image-rendering:auto;shape-rendering:auto;text-rendering:auto;enable-background:accumulate;filter-blend-mode:normal;filter-gaussianBlur-deviation:0" />
</svg>

<svg xmlns="http://www.w3.org/2000/svg" xmlns:xlink="http://www.w3.org/1999/xlink" viewBox="0 0 64 64"><defs><linearGradient gradientTransform="matrix(0 -1.62735 -1.75086 0 65.437 75.16)" gradientUnits="userSpaceOnUse" xlink:href="#a" id="f" y2="15.991" x2="20.576" y1="15.991" x1="38.941"/><linearGradient id="a"><stop offset="0" stop-color="#fff"/><stop offset=".512" stop-color="#fff" stop-opacity=".235"/><stop offset=".585" stop-color="#fff" stop-opacity=".157"/><stop offset="1" stop-color="#fff" stop-opacity=".392"/></linearGradient><linearGradient gradientTransform="matrix(-1.494 0 0 1.3886 68.1 .036)" gradientUnits="userSpaceOnUse" xlink:href="#b" id="e" y2="38.362" x2="23.732" y1="4.418" x1="23.732"/><linearGradient id="b"><stop offset="0" stop-color="#fff3cb"/><stop offset=".262" stop-color="#fdde76"/><stop offset=".661" stop-color="#f9c440"/><stop offset="1" stop-color="#e48b20"/></linearGradient><radialGradient gradientTransform="matrix(1 0 0 .53672 0 16.873)" gradientUnits="userSpaceOnUse" xlink:href="#c" id="d" fy="36.421" fx="24.837" r="15.645" cy="36.421" cx="24.837"/><linearGradient id="c"><stop offset="0"/><stop offset="1" stop-opacity="0"/></linearGradient></defs><path d="M40.482 36.42a15.645 8.397 0 1 1-31.29 0 15.645 8.397 0 1 1 31.29 0z" transform="matrix(1.4132 0 0 -1.75424 1.966 109.16)" overflow="visible" opacity=".141" fill="url(#d)" fill-rule="evenodd"/><path d="M44.695 53.518c18.97-12.788 8.95-36.322-12.195-36.13V6.483L6.482 25.275l26.018 18.7V33.068c13.637-.53 21.262 11.527 11.513 20.45z" style="isolation:auto;mix-blend-mode:normal;filter-blend-mode:normal;filter-gaussianBlur-deviation:0" display="block" overflow="visible" fill="url(#e)" color="#000"/><path d="M46.747 51.5C61.205 38.368 52.84 18.328 31.5 18.328V8.383L8.172 25.275 31.5 41.992V31.965c20.26.2 19.806 16.12 15.247 19.535z" display="block" overflow="visible" opacity=".8" fill="none" stroke="url(#f)" stroke-width=".964" stroke-miterlimit="7"/><path d="M44.695 53.518c18.97-12.788 8.95-36.322-12.195-36.13V6.483L6.482 25.275l26.018 18.7V33.068c13.637-.53 21.262 11.527 11.513 20.45z" style="isolation:auto;mix-blend-mode:normal;filter-blend-mode:normal;filter-gaussianBlur-deviation:0" color="#000" overflow="visible" opacity=".5" fill="none" stroke="#956500" stroke-linejoin="round"/></svg>
